src/assets/icons/readingNote_tags.svg

<svg width="21" height="21" viewBox="0 0 21 21" fill="none" xmlns="http://www.w3.org/2000/svg">
<g clip-path="url(#clip0_2547_4974)">
<path d="M9.86019 0.86C9.70907 0.791868 9.5459 0.754476 9.38019 0.75H9.23019L3.67019 0.84C3.40497 0.84 3.15062 0.945357 2.96308 1.13289C2.77555 1.32043 2.67019 1.57478 2.67019 1.84L2.63019 7.36V7.51C2.62123 7.68033 2.65928 7.84984 2.74019 8C2.84308 8.34 3.0286 8.64922 3.28019 8.9L11.1902 16.81C11.3771 17.0079 11.6013 17.1671 11.8498 17.2782C12.0984 17.3894 12.3664 17.4505 12.6386 17.4579C12.9108 17.4653 13.1817 17.419 13.436 17.3215C13.6902 17.2241 13.9227 17.0774 14.1202 16.89L18.7502 12.27C19.1256 11.867 19.3268 11.332 19.3099 10.7815C19.2931 10.2309 19.0596 9.70931 18.6602 9.33L10.7502 1.4C10.4987 1.15435 10.1942 0.969614 9.86019 0.86Z" stroke="#2F3645" stroke-width="1.5" stroke-miterlimit="10"/>
<path d="M8.0001 2.93993C7.85476 2.86543 7.69339 2.82767 7.5301 2.82993H7.3601L1.8201 2.99993C1.57206 3.01205 1.3374 3.11603 1.1618 3.29163C0.986197 3.46723 0.882217 3.70189 0.870096 3.94993L0.750096 9.43993V9.58993C0.747834 9.75323 0.785601 9.9146 0.860096 10.0599C0.961959 10.3952 1.14386 10.7006 1.3901 10.9499L9.2201 18.7799C9.60038 19.1759 10.1218 19.4055 10.6707 19.4186C11.2195 19.4317 11.7513 19.2273 12.1501 18.8499L16.7701 14.2299C17.1475 13.8312 17.3519 13.2994 17.3388 12.7505C17.3257 12.2016 17.0961 11.6802 16.7001 11.2999L8.8701 3.46993C8.6265 3.22643 8.3282 3.04471 8.0001 2.93993Z" fill="white" stroke="#2F3645" stroke-width="1.5" stroke-miterlimit="10"/>
<path d="M4.80998 8.35995C5.54452 8.35995 6.13998 7.76449 6.13998 7.02995C6.13998 6.29541 5.54452 5.69995 4.80998 5.69995C4.07544 5.69995 3.47998 6.29541 3.47998 7.02995C3.47998 7.76449 4.07544 8.35995 4.80998 8.35995Z" stroke="#2F3645" stroke-width="1.5" stroke-miterlimit="10"/>
</g>
<defs>
<clipPath id="clip0_2547_4974">
<rect width="20.06" height="20.17" fill="white"/>
</clipPath>
</defs>
</svg>

<svg xmlns="http://www.w3.org/2000/svg" viewBox="0 0 20.06 20.17"><defs><style>.cls-1{fill:none;}.cls-1,.cls-2{stroke:#2f3645;stroke-miterlimit:10;stroke-width:1.5px;}.cls-2{fill:#fff;}</style></defs><g id="레이어_2" data-name="레이어 2"><g id="레이어_1-2" data-name="레이어 1"><g id="reading_note_tags" data-name="reading_note/tags"><path class="cls-1" d="M9.86.86A1.25,1.25,0,0,0,9.38.75H9.23L3.67.84a1,1,0,0,0-1,1L2.63,7.36v.15A.93.93,0,0,0,2.74,8a2.15,2.15,0,0,0,.54.9l7.91,7.91a2.07,2.07,0,0,0,2.93.08l4.63-4.62a2.09,2.09,0,0,0-.09-2.94L10.75,1.4A2.3,2.3,0,0,0,9.86.86Z"/><path class="cls-2" d="M8,2.94a1,1,0,0,0-.47-.11H7.36L1.82,3a1,1,0,0,0-.95.95L.75,9.44v.15a1,1,0,0,0,.11.47,2.16,2.16,0,0,0,.53.89l7.83,7.83a2.08,2.08,0,0,0,2.93.07l4.62-4.62a2.08,2.08,0,0,0-.07-2.93L8.87,3.47A2.16,2.16,0,0,0,8,2.94Z"/><circle class="cls-1" cx="4.81" cy="7.03" r="1.33"/></g></g></g></svg>
